dist/assets/img/svg/icon-yt.svg

<svg width="24" height="18" viewBox="0 0 24 18" fill="none" xmlns="http://www.w3.org/2000/svg">
<path fill-rule="evenodd" clip-rule="evenodd" d="M22.5583 1.90252C22.9216 2.27704 23.1796 2.7408 23.3063 3.24695C23.6447 5.1226 23.8089 7.02551 23.7969 8.93139C23.8037 10.8088 23.6395 12.6829 23.3063 14.5305C23.1796 15.0367 22.9216 15.5004 22.5583 15.8749C22.1951 16.2495 21.7394 16.5215 21.2373 16.6635C19.4029 17.1541 12.0654 17.1541 12.0654 17.1541C12.0654 17.1541 4.72789 17.1541 2.89351 16.6635C2.40166 16.5289 1.95284 16.2698 1.5904 15.9111C1.22796 15.5524 0.964166 15.1063 0.824498 14.6158C0.486169 12.7402 0.321941 10.8373 0.333907 8.93139C0.324561 7.03975 0.488779 5.15124 0.824498 3.28961C0.951186 2.78346 1.2092 2.3197 1.57248 1.94518C1.93577 1.57066 2.39145 1.29865 2.89351 1.15661C4.72789 0.666016 12.0654 0.666016 12.0654 0.666016C12.0654 0.666016 19.4029 0.666016 21.2373 1.11395C21.7394 1.25599 22.1951 1.528 22.5583 1.90252ZM15.7982 8.93139L9.66579 12.4188V5.44394L15.7982 8.93139Z" fill="white" fill-opacity="0.7"/>
</svg>

<svg width="24" height="18" fill="none" xmlns="http://www.w3.org/2000/svg"><path fill-rule="evenodd" clip-rule="evenodd" d="M22.558 1.903c.364.374.622.838.748 1.344a30.92 30.92 0 01.49 5.684 30.917 30.917 0 01-.49 5.6 2.964 2.964 0 01-2.069 2.132c-1.834.491-9.172.491-9.172.491s-7.337 0-9.171-.49a2.965 2.965 0 01-2.07-2.048 30.928 30.928 0 01-.49-5.685c-.01-1.891.155-3.78.49-5.641a2.965 2.965 0 012.07-2.133C4.728.666 12.065.666 12.065.666s7.338 0 9.172.448a2.96 2.96 0 011.321.789zm-6.76 7.028L9.666 12.42V5.444l6.132 3.487z" fill="#fff" fill-opacity=".7"/></svg>
